X:483
T:La Belle Catherine
M:4/4
L:1/8
R:reel
K:Dmaj
S:trad Québecois from André Brunet
Z:abc from thesession.org modified by J. Kavanagh
P:AAABBAAACC
|:"D" D2 FA dfed|"A" c2 Ac "G"B2GB|"D"AB AG FAdf|"A"g2 fa "G"ec "D"d2:|
|:\
M:6/4
"D"fa (3aaa fdef "G"gb (3bbb|\
M:4/4
"D"fa (3aaa fdef|"A"gbea "D"fd d2|
M:6/4
"D"fa (3aaa fdef "G"gb (3bbb|\
M:4/4
"D"fa (3aaa fdef|"G"g2fa "A"ec "D"d2:|
|:"D"DFAF DFAF|"G"DGBG DGBG|"D"DFAF DFAF|"A"A,CEC A,CEC|
"D"DFAF DFAF|"G"DGBG DGBG|"D"AB AG FAdf|"G"g2fa "A"ec "D"d2:|

%%newpage
%%scale 0.7

